X:1
T:Lord Rendal
M:3/4
L:1/4
K:C
 D| G A G| E D D| D G A| B2 B| B d B| A G E| D E A| G2 D| G A B| E D D|\
 D E G| B2 G| B d B| A- G E| D G A| G2||
